data/system/assets/map/thought_bubble.svg

<?xml version="1.0" encoding="UTF-8" standalone="no"?>
<svg
   xmlns:dc="http://purl.org/dc/elements/1.1/"
   xmlns:cc="http://creativecommons.org/ns#"
   xmlns:rdf="http://www.w3.org/1999/02/22-rdf-syntax-ns#"
   xmlns:svg="http://www.w3.org/2000/svg"
   xmlns="http://www.w3.org/2000/svg"
   height="100px"
   width="100px"
   fill="#000000"
   version="1.1"
   x="0px"
   y="0px"
   viewBox="0 0 100 100"
   enable-background="new 0 0 100 100"
   xml:space="preserve"
   id="svg116"><metadata
     id="metadata122"><rdf:RDF><cc:Work
         rdf:about=""><dc:format>image/svg+xml</dc:format><dc:type
           rdf:resource="http://purl.org/dc/dcmitype/StillImage" /><dc:title></dc:title></cc:Work></rdf:RDF></metadata><defs
     id="defs120" /><path
     d="M74.681,79.083c-4.612,0-9.051-1.306-12.926-3.791c-3.43,2.454-7.566,3.791-11.806,3.791c-7.109,0-13.713-3.789-17.365-9.81  c-2.301,1.096-4.811,1.668-7.367,1.668c-9.475,0-17.183-7.709-17.183-17.185c0-7.059,4.323-13.326,10.744-15.916  c-0.897-2.809-1.352-5.712-1.352-8.656c0-15.776,12.835-28.611,28.611-28.611c8.155,0,15.789,3.422,21.222,9.453  c2.755-1.684,5.881-2.565,9.144-2.565c9.733,0,17.652,7.92,17.652,17.654c0,4.133-1.474,8.136-4.105,11.291  c5.551,4.554,8.803,11.35,8.803,18.605C98.752,68.285,87.954,79.083,74.681,79.083z M61.601,70.28l1.264,0.925  c3.468,2.537,7.554,3.878,11.816,3.878c11.067,0,20.071-9.004,20.071-20.07c0-6.708-3.335-12.946-8.921-16.687l-2.12-1.419  l1.884-1.72c2.835-2.587,4.46-6.258,4.46-10.071c0-7.529-6.124-13.654-13.652-13.654c-3.015,0-5.88,0.976-8.286,2.822l-1.562,1.2  l-1.224-1.544c-4.712-5.952-11.744-9.365-19.293-9.365c-13.571,0-24.611,11.041-24.611,24.611c0,3.134,0.6,6.215,1.782,9.16  l0.845,2.103l-2.192,0.576c-5.786,1.521-9.826,6.757-9.826,12.732c0,7.27,5.914,13.185,13.183,13.185c2.507,0,4.96-0.72,7.094-2.081  l1.917-1.225l0.968,2.059c2.683,5.703,8.474,9.389,14.753,9.389c3.814,0,7.526-1.349,10.45-3.797L61.601,70.28z"
     id="path110" /><path
     d="M27.5,92.859c-4.564,0-8.277-3.713-8.277-8.277s3.713-8.277,8.277-8.277c4.565,0,8.279,3.713,8.279,8.277  S32.065,92.859,27.5,92.859z M27.5,79.305c-2.91,0-5.277,2.367-5.277,5.277s2.367,5.277,5.277,5.277  c2.911,0,5.279-2.367,5.279-5.277S30.411,79.305,27.5,79.305z"
     id="path112" /><path
     d="M11.675,98.5c-3.049,0-5.53-2.48-5.53-5.53s2.48-5.53,5.53-5.53c3.05,0,5.531,2.48,5.531,5.53S14.725,98.5,11.675,98.5z   M11.675,90.439c-1.395,0-2.53,1.135-2.53,2.53s1.135,2.53,2.53,2.53c1.396,0,2.531-1.135,2.531-2.53S13.07,90.439,11.675,90.439z"
     id="path114" /><path
     style="fill:#ffffff;stroke-width:0.330676"
     d="m 45.427925,74.166559 c -1.000295,-0.323404 -2.485436,-0.931143 -3.300316,-1.350529 -2.107555,-1.084683 -5.286451,-4.437134 -6.594132,-6.954148 -0.614178,-1.182166 -1.148738,-2.191279 -1.18791,-2.242475 -0.03917,-0.0512 -1.170166,0.495429 -2.51332,1.214725 -5.72108,3.063793 -11.029157,2.428859 -15.546999,-1.859681 -2.591867,-2.460317 -3.704053,-4.962019 -3.864097,-8.691734 -0.09476,-2.208279 0.02363,-3.227313 0.548379,-4.720327 1.415498,-4.027343 4.790799,-7.126182 9.108933,-8.362843 1.687095,-0.48316 2.149834,-0.744338 1.997825,-1.127598 -1.919059,-4.838552 -2.263492,-6.464222 -2.277565,-10.74974 -0.01186,-3.612762 0.10958,-4.692708 0.760992,-6.7672 2.699368,-8.596419 9.068541,-14.7860317 17.577397,-17.0818533 2.917449,-0.7871729 8.988495,-0.7901451 11.848328,-0.0058 5.258135,1.4421094 9.3678,4.1274638 13.148893,8.5918043 l 1.353902,1.598554 2.212247,-1.483677 c 7.618033,-5.1091482 17.125854,-2.013732 20.385586,6.636839 0.591063,1.56854 0.692631,2.414179 0.585402,4.8739 -0.169706,3.892809 -1.124112,6.021819 -4.065156,9.068214 l -2.16171,2.23914 1.906905,1.264903 c 10.813174,7.172681 12.316968,21.638146 3.201437,30.795613 -3.779359,3.796743 -8.467661,5.737483 -13.860215,5.737483 -4.240388,0 -8.21563,-1.261396 -11.572459,-3.672085 l -1.488299,-1.068817 -1.2405,0.982107 c -1.929404,1.527507 -3.380654,2.321291 -5.611525,3.069309 -2.615457,0.876975 -6.753186,0.906138 -9.352023,0.06592 z"
     id="path128" /><path
     style="fill:#ffffff;stroke-width:0.330676"
     d="m 25.42204,89.20676 c -1.907853,-0.842147 -3.349346,-3.406862 -2.964595,-5.274635 0.811428,-3.939079 5.204882,-5.732153 8.092213,-3.302625 2.060851,1.734092 2.544503,4.147223 1.281578,6.394295 -1.268431,2.25687 -4.075664,3.21301 -6.409196,2.182965 z"
     id="path130" /><path
     style="fill:#00ffff;stroke-width:0.330676"
     d="m 10.103258,94.526693 c -0.9327719,-0.992891 -0.9143588,-2.242605 0.04634,-3.145135 0.992891,-0.932772 2.242605,-0.914359 3.145135,0.04634 0.932772,0.99289 0.914359,2.242605 -0.04634,3.145135 -0.99289,0.932772 -2.242605,0.914359 -3.145135,-0.04634 z"
     id="path132" /></svg>

<svg width="100" height="100" viewBox="0 0 100 100" fill="none" xmlns="http://www.w3.org/2000/svg">
<path d="M74.6812 79.083C70.0692 79.083 65.6302 77.777 61.7552 75.292C58.3252 77.746 54.1892 79.083 49.9492 79.083C42.8402 79.083 36.2362 75.294 32.5842 69.273C30.2832 70.369 27.7732 70.941 25.2172 70.941C15.7422 70.941 8.03418 63.232 8.03418 53.756C8.03418 46.697 12.3572 40.43 18.7782 37.84C17.8812 35.031 17.4262 32.128 17.4262 29.184C17.4262 13.408 30.2612 0.572998 46.0372 0.572998C54.1922 0.572998 61.8262 3.995 67.2592 10.026C70.0142 8.342 73.1402 7.461 76.4032 7.461C86.1362 7.461 94.0552 15.381 94.0552 25.115C94.0552 29.248 92.5812 33.251 89.9502 36.406C95.5012 40.96 98.7532 47.756 98.7532 55.011C98.7522 68.285 87.9542 79.083 74.6812 79.083ZM61.6012 70.28L62.8652 71.205C66.3332 73.742 70.4192 75.083 74.6812 75.083C85.7482 75.083 94.7522 66.079 94.7522 55.013C94.7522 48.305 91.4172 42.067 85.8312 38.326L83.7112 36.907L85.5952 35.187C88.4302 32.6 90.0552 28.929 90.0552 25.116C90.0552 17.587 83.9312 11.462 76.4032 11.462C73.3882 11.462 70.5232 12.438 68.1172 14.284L66.5552 15.484L65.3312 13.94C60.6192 7.988 53.5872 4.575 46.0382 4.575C32.4672 4.575 21.4272 15.616 21.4272 29.186C21.4272 32.32 22.0272 35.401 23.2092 38.346L24.0542 40.449L21.8622 41.025C16.0762 42.546 12.0362 47.782 12.0362 53.757C12.0362 61.027 17.9502 66.942 25.2192 66.942C27.7262 66.942 30.1792 66.222 32.3132 64.861L34.2302 63.636L35.1982 65.695C37.8812 71.398 43.6722 75.084 49.9512 75.084C53.7652 75.084 57.4772 73.735 60.4012 71.287L61.6012 70.28Z" fill="black"/>
<path d="M27.5001 92.8589C22.9361 92.8589 19.2231 89.1459 19.2231 84.5819C19.2231 80.0179 22.9361 76.3049 27.5001 76.3049C32.0651 76.3049 35.7791 80.0179 35.7791 84.5819C35.7791 89.1459 32.0651 92.8589 27.5001 92.8589ZM27.5001 79.3049C24.5901 79.3049 22.2231 81.6719 22.2231 84.5819C22.2231 87.4919 24.5901 89.8589 27.5001 89.8589C30.4111 89.8589 32.7791 87.4919 32.7791 84.5819C32.7791 81.6719 30.4111 79.3049 27.5001 79.3049Z" fill="black"/>
<path d="M11.675 98.4999C8.62602 98.4999 6.14502 96.0199 6.14502 92.9699C6.14502 89.9199 8.62502 87.4399 11.675 87.4399C14.725 87.4399 17.206 89.9199 17.206 92.9699C17.206 96.0199 14.725 98.4999 11.675 98.4999ZM11.675 90.4389C10.28 90.4389 9.14502 91.5739 9.14502 92.9689C9.14502 94.3639 10.28 95.4989 11.675 95.4989C13.071 95.4989 14.206 94.3639 14.206 92.9689C14.206 91.5739 13.07 90.4389 11.675 90.4389Z" fill="black"/>
<path d="M45.4281 74.1665C44.4278 73.8431 42.9427 73.2353 42.1278 72.816C40.0202 71.7313 36.8414 68.3788 35.5337 65.8618C34.9195 64.6796 34.3849 63.6705 34.3458 63.6193C34.3066 63.5681 33.1756 64.1148 31.8324 64.8341C26.1114 67.8978 20.8033 67.2629 16.2854 62.9744C13.6936 60.5141 12.5814 58.0124 12.4213 54.2826C12.3266 52.0744 12.445 51.0553 12.9697 49.5623C14.3852 45.535 17.7605 42.4361 22.0787 41.1995C23.7657 40.7163 24.2285 40.4551 24.0765 40.0719C22.1574 35.2333 21.813 33.6077 21.7989 29.3221C21.7871 25.7094 21.9085 24.6294 22.5599 22.5549C25.2593 13.9585 31.6284 7.7689 40.1373 5.47308C43.0548 4.68591 49.1258 4.68294 51.9856 5.46728C57.2438 6.90939 61.3534 9.59475 65.1345 14.0591L66.4884 15.6576L68.7007 14.174C76.3187 9.06482 85.8265 12.1602 89.0863 20.8108C89.6773 22.3793 89.7789 23.225 89.6717 25.6847C89.502 29.5775 88.5476 31.7065 85.6065 34.7529L83.4448 36.9921L85.3517 38.257C96.1649 45.4296 97.6687 59.8951 88.5531 69.0526C84.7738 72.8493 80.0855 74.7901 74.6929 74.7901C70.4525 74.7901 66.4773 73.5287 63.1205 71.118L61.6322 70.0492L60.3917 71.0313C58.4623 72.5588 57.011 73.3526 54.7801 74.1006C52.1647 74.9775 48.027 75.0067 45.4281 74.1665V74.1665Z" fill="white"/>
<path d="M25.4221 89.2069C23.5142 88.3647 22.0728 85.8 22.4575 83.9322C23.2689 79.9932 27.6624 78.2001 30.5497 80.6296C32.6106 82.3637 33.0942 84.7768 31.8313 87.0239C30.5629 89.2808 27.7556 90.2369 25.4221 89.2069V89.2069Z" fill="white"/>
<path d="M10.1031 94.5268C9.17033 93.5339 9.18875 92.2842 10.1494 91.3817C11.1423 90.4489 12.392 90.4673 13.2946 91.428C14.2274 92.4209 14.2089 93.6706 13.2482 94.5731C12.2553 95.5059 11.0056 95.4875 10.1031 94.5268Z" fill="white"/>
</svg>
